bicons/scalable/emblems/entity-user.svg

<?xml version="1.0" encoding="UTF-8" standalone="no"?>
<!-- Created with Inkscape (http://www.inkscape.org/) -->

<svg
   xmlns:dc="http://purl.org/dc/elements/1.1/"
   xmlns:cc="http://creativecommons.org/ns#"
   xmlns:rdf="http://www.w3.org/1999/02/22-rdf-syntax-ns#"
   xmlns:svg="http://www.w3.org/2000/svg"
   xmlns="http://www.w3.org/2000/svg"
   xmlns:xlink="http://www.w3.org/1999/xlink"
   xmlns:sodipodi="http://sodipodi.sourceforge.net/DTD/sodipodi-0.dtd"
   xmlns:inkscape="http://www.inkscape.org/namespaces/inkscape"
   width="210mm"
   height="297mm"
   viewBox="0 0 744.09448819 1052.3622047"
   id="svg2"
   version="1.1"
   inkscape:version="0.91 r13725"
   sodipodi:docname="entity-user.svg"
   inkscape:export-filename="C:\Users\johannes\Documents\Arbeit\RRZE\bi-con\bi-con\scalable\documents\document.png"
   inkscape:export-xdpi="4"
   inkscape:export-ydpi="4">
  <defs
     id="defs4">
    <linearGradient
       inkscape:collect="always"
       id="linearGradient4233">
      <stop
         style="stop-color:#5a6578;stop-opacity:1;"
         offset="0"
         id="stop4235" />
      <stop
         style="stop-color:#9397a2;stop-opacity:1"
         offset="1"
         id="stop4237" />
    </linearGradient>
    <linearGradient
       id="linearGradient2224">
      <stop
         id="stop2226"
         offset="0"
         style="stop-color:#7c7c7c;stop-opacity:1;" />
      <stop
         id="stop2228"
         offset="1"
         style="stop-color:#b8b8b8;stop-opacity:1;" />
    </linearGradient>
    <linearGradient
       id="linearGradient15218">
      <stop
         id="stop15220"
         offset="0"
         style="stop-color:#eeeeef;stop-opacity:1;" />
      <stop
         id="stop2736"
         offset="0.59928656"
         style="stop-color:#d3d7cf;stop-opacity:1;" />
      <stop
         id="stop2738"
         offset="0.82758623"
         style="stop-color:#ffffff;stop-opacity:1;" />
      <stop
         id="stop15222"
         offset="1"
         style="stop-color:#d3d7cf;stop-opacity:1;" />
    </linearGradient>
    <pattern
       y="0"
       x="0"
       height="6"
       width="6"
       patternUnits="userSpaceOnUse"
       id="EMFhbasepattern" />
    <pattern
       y="0"
       x="0"
       height="6"
       width="6"
       patternUnits="userSpaceOnUse"
       id="EMFhbasepattern-5" />
    <linearGradient
       inkscape:collect="always"
       xlink:href="#linearGradient4233"
       id="linearGradient4239"
       x1="220"
       y1="692.36218"
       x2="540"
       y2="372.36221"
       gradientUnits="userSpaceOnUse" />
  </defs>
  <sodipodi:namedview
     id="base"
     pagecolor="#ffffff"
     bordercolor="#666666"
     borderopacity="1.0"
     inkscape:pageopacity="0.0"
     inkscape:pageshadow="2"
     inkscape:zoom="0.5"
     inkscape:cx="39.959984"
     inkscape:cy="545.02314"
     inkscape:document-units="px"
     inkscape:current-layer="layer1"
     showgrid="false"
     showguides="true"
     inkscape:guide-bbox="true"
     inkscape:window-width="1366"
     inkscape:window-height="721"
     inkscape:window-x="-4"
     inkscape:window-y="-4"
     inkscape:window-maximized="1">
    <sodipodi:guide
       position="560,730.00002"
       orientation="0,1"
       id="guide3338" />
    <sodipodi:guide
       position="560,330.00001"
       orientation="0,1"
       id="guide3340" />
    <sodipodi:guide
       position="190,475.00001"
       orientation="1,0"
       id="guide3344" />
    <sodipodi:guide
       position="590,451.00001"
       orientation="1,0"
       id="guide3346" />
    <inkscape:grid
       type="xygrid"
       id="grid3440" />
  </sodipodi:namedview>
  <metadata
     id="metadata7">
    <rdf:RDF>
      <cc:Work
         rdf:about="">
        <dc:format>image/svg+xml</dc:format>
        <dc:type
           rdf:resource="http://purl.org/dc/dcmitype/StillImage" />
        <dc:title />
      </cc:Work>
    </rdf:RDF>
  </metadata>
  <g
     inkscape:label="Ebene 1"
     inkscape:groupmode="layer"
     id="layer1">
    <rect
       style="opacity:1;fill:none;fill-opacity:1;stroke:none;stroke-width:23;stroke-linecap:butt;stroke-linejoin:round;stroke-miterlimit:4;stroke-dasharray:none;stroke-opacity:1"
       id="rect4160"
       width="400"
       height="400"
       x="190"
       y="322.36221" />
    <g
       id="g4161"
       transform="matrix(0.87498292,0,0,0.87498292,47.753246,66.307507)">
      <path
         id="rect4203"
         d="m 280,372.36133 c -5.54,0 -10,4.46 -10,10 0,5.54 4.46,10 10,10 l 21.54492,0 c 0.61978,-3.23704 0.95508,-6.57702 0.95508,-10 0,-3.42299 -0.3353,-6.76296 -0.95508,-10 l -21.54492,0 z m 36.75391,0 c 0.48792,3.26441 0.74609,6.60291 0.74609,10 0,3.39709 -0.25817,6.73558 -0.74609,10 l 146.61328,0 c -0.55991,-3.48975 -0.85938,-7.06509 -0.85938,-10.70899 0,-3.15282 0.23487,-6.25136 0.65625,-9.29101 l -146.41015,0 z m 161.58398,0 c -0.53478,3.01612 -0.83008,6.1168 -0.83008,9.29101 0,3.67242 0.37497,7.25303 1.08594,10.70899 l 41.40625,0 c 5.54,0 10,-4.46 10,-10 0,-5.54 -4.46,-10 -10,-10 l -41.66211,0 z m -228.33789,10 c -5.54,0 -10,4.46 -10,10 l 0,41.54492 c 3.23704,0.61978 6.57702,0.95508 10,0.95508 3.42298,0 6.76296,-0.3353 10,-0.95508 l 0,-41.54492 c 0,-5.54 -4.46,-10 -10,-10 z m 280,30 c -5.54,0 -10,4.46 -10,10 l 0,10.83398 c 3.23949,0.62077 6.58205,0.95703 10.00781,0.95703 3.42021,0 6.7576,-0.33432 9.99219,-0.95312 l 0,-10.83789 c 0,-5.54 -4.46,-10 -10,-10 z m -10,36.04297 0,147.1914 c 3.23358,-0.47849 6.53887,-0.73437 9.90234,-0.73437 3.43071,0 6.80245,0.26036 10.09766,0.75781 l 0,-147.21289 c -3.26199,0.48718 -6.59775,0.74609 -9.99219,0.74609 -3.39982,0 -6.74089,-0.25935 -10.00781,-0.74804 z m -280,0.71093 0,146.12305 c 3.35757,-0.51704 6.79604,-0.78516 10.29492,-0.78516 3.2955,10e-6 6.53394,0.24931 9.70508,0.70899 l 0,-146.04688 c -3.26441,0.48793 -6.60291,0.7461 -10,0.7461 -3.39709,0 -6.73559,-0.25817 -10,-0.7461 z m 10.29492,160.33789 c -3.52651,10e-6 -6.9667,0.35091 -10.29492,1.00782 l 0,11.90039 c 0,5.54 4.46,10 10,10 5.54,0 10,-4.46 10,-10 l 0,-12.00586 c -3.14541,-0.58368 -6.38562,-0.90235 -9.70508,-0.90235 z m 279.60742,0.40821 c -3.38869,0 -6.6956,0.32979 -9.90234,0.9375 l 0,11.5625 c 0,5.54 4.46,10 10,10 5.54,0 10,-4.46 10,-10 l 0,-11.52735 c -3.26729,-0.63196 -6.64038,-0.97265 -10.09766,-0.97265 z M 270,652.36133 c -5.54,0 -10,4.46 -10,10 0,5.54 4.46,10 10,10 l 31.76758,0 c 0.67142,-3.36308 1.02734,-6.84197 1.02734,-10.40821 0,-3.27973 -0.31271,-6.48165 -0.88281,-9.59179 l -31.91211,0 z m 47.10156,0 c 0.44903,3.13517 0.69336,6.33539 0.69336,9.59179 0,3.53863 -0.27801,7.01435 -0.80664,10.40821 l 146.16016,0 c -0.48793,-3.26442 -0.7461,-6.60291 -0.7461,-10 0,-3.39709 0.25817,-6.73559 0.7461,-10 l -146.04688,0 z m 161.25586,0 c -0.61978,3.23704 -0.95508,6.57701 -0.95508,10 0,3.42298 0.3353,6.76296 0.95508,10 l 31.64258,0 c 5.54,0 10,-4.46 10,-10 0,-5.54 -4.46,-10 -10,-10 l -31.64258,0 z"
         style="color:#000000;clip-rule:nonzero;display:inline;overflow:visible;visibility:visible;opacity:1;isolation:auto;mix-blend-mode:normal;color-interpolation:sRGB;color-interpolation-filters:linearRGB;solid-color:#000000;solid-opacity:1;fill:#5a6578;fill-opacity:1;fill-rule:nonzero;stroke:none;stroke-width:23;stroke-linecap:butt;stroke-linejoin:round;stroke-miterlimit:4;stroke-dasharray:none;stroke-dashoffset:0;stroke-opacity:1;color-rendering:auto;image-rendering:auto;shape-rendering:auto;text-rendering:auto;enable-background:accumulate"
         inkscape:connector-curvature="0" />
      <path
         id="path4165"
         d="m 530.00781,321.65234 a 60,60.000004 0 0 0 -60,60 60,60.000004 0 0 0 60,60 60,60.000004 0 0 0 60,-60 60,60.000004 0 0 0 -60,-60 z M 250,322.36133 a 60,60.000004 0 0 0 -60,60 60,60.000004 0 0 0 60,60 60,60.000004 0 0 0 60,-60 60,60.000004 0 0 0 -60,-60 z m 0.29492,279.59179 a 60,60.000004 0 0 0 -60,60 60,60.000004 0 0 0 60,60 60,60.000004 0 0 0 60,-60 60,60.000004 0 0 0 -60,-60 z m 279.60742,0.40821 a 60,60.000004 0 0 0 -60,60 60,60.000004 0 0 0 60,60 60,60.000004 0 0 0 60,-60 60,60.000004 0 0 0 -60,-60 z"
         style="color:#000000;clip-rule:nonzero;display:inline;overflow:visible;visibility:visible;opacity:1;isolation:auto;mix-blend-mode:normal;color-interpolation:sRGB;color-interpolation-filters:linearRGB;solid-color:#000000;solid-opacity:1;fill:url(#linearGradient4239);fill-opacity:1;fill-rule:nonzero;stroke:none;stroke-width:23;stroke-linecap:butt;stroke-linejoin:round;stroke-miterlimit:4;stroke-dasharray:none;stroke-dashoffset:0;stroke-opacity:1;color-rendering:auto;image-rendering:auto;shape-rendering:auto;text-rendering:auto;enable-background:accumulate"
         inkscape:connector-curvature="0" />
      <g
         transform="matrix(0.69739041,0,0,0.69739041,192.86053,209.4066)"
         id="g4178"
         style="fill:#abbe24;stroke:#ffffff;stroke-width:30;stroke-linejoin:round;stroke-miterlimit:4;stroke-dasharray:none">
        <path
           sodipodi:nodetypes="cccsccccccscsc"
           inkscape:connector-curvature="0"
           id="path4180"
           d="m 354.64258,460.41602 c -0.11745,0.1039 -0.22449,0.21556 -0.3457,0.3164 l -6.54297,3.54492 c -42.67576,25.28071 -72.76172,86.25893 -72.76172,157.46875 0,15.29493 1.39507,30.1142 3.99804,44.21289 3.86098,8.63739 13.56182,14.96807 25.18555,15.79493 l 0,0.0957 172.76172,0 0,-0.008 c 13.04649,-0.18416 24.03463,-7.28341 27.72656,-17.01563 2.4704,-13.75919 3.79102,-28.19351 3.79102,-43.08008 0,-74.54936 -32.9771,-137.88441 -78.85156,-160.78515 -10.95259,6.14942 -23.5778,9.67773 -37.00391,9.67773 -13.81748,10e-6 -26.78697,-3.73654 -37.95703,-10.22265 z"
           style="fill:#abbe24;fill-opacity:1;stroke:#ffffff;stroke-width:30;stroke-linecap:round;stroke-linejoin:round;stroke-miterlimit:4;stroke-dasharray:none;stroke-opacity:1" />
        <ellipse
           ry="65.293182"
           rx="65.647316"
           cx="392.98022"
           cy="395.83826"
           id="ellipse4182"
           style="fill:#abbe24;fill-opacity:1;stroke:#ffffff;stroke-width:30;stroke-linejoin:round;stroke-miterlimit:4;stroke-dasharray:none;stroke-opacity:1" />
      </g>
      <g
         style="fill:#abbe24"
         id="g4289"
         transform="matrix(0.69739041,0,0,0.69739041,192.86053,209.4066)">
        <path
           style="fill:#abbe24;fill-opacity:1;stroke:none;stroke-width:41.15159225;stroke-linecap:round;stroke-linejoin:round;stroke-opacity:1"
           d="m 354.64258,460.41602 c -0.11745,0.1039 -0.22449,0.21556 -0.3457,0.3164 l -6.54297,3.54492 c -42.67576,25.28071 -72.76172,86.25893 -72.76172,157.46875 0,15.29493 1.39507,30.1142 3.99804,44.21289 3.86098,8.63739 13.56182,14.96807 25.18555,15.79493 l 0,0.0957 172.76172,0 0,-0.008 c 13.04649,-0.18416 24.03463,-7.28341 27.72656,-17.01563 2.4704,-13.75919 3.79102,-28.19351 3.79102,-43.08008 0,-74.54936 -32.9771,-137.88441 -78.85156,-160.78515 -10.95259,6.14942 -23.5778,9.67773 -37.00391,9.67773 -13.81748,10e-6 -26.78697,-3.73654 -37.95703,-10.22265 z"
           id="path2176"
           inkscape:connector-curvature="0"
           sodipodi:nodetypes="cccsccccccscsc" />
        <ellipse
           style="fill:#abbe24;fill-opacity:1;stroke:none;stroke-width:14;stroke-miterlimit:4;stroke-dasharray:none;stroke-opacity:1"
           id="circle2187-6"
           cy="395.83826"
           cx="392.98022"
           rx="65.647316"
           ry="65.293182" />
      </g>
    </g>
  </g>
</svg>

<?xml version="1.0" encoding="UTF-8" standalone="no"?>
<!-- Created with Inkscape (http://www.inkscape.org/) -->

<svg
   xmlns:dc="http://purl.org/dc/elements/1.1/"
   xmlns:cc="http://creativecommons.org/ns#"
   xmlns:rdf="http://www.w3.org/1999/02/22-rdf-syntax-ns#"
   xmlns:svg="http://www.w3.org/2000/svg"
   xmlns="http://www.w3.org/2000/svg"
   xmlns:xlink="http://www.w3.org/1999/xlink"
   xmlns:sodipodi="http://sodipodi.sourceforge.net/DTD/sodipodi-0.dtd"
   xmlns:inkscape="http://www.inkscape.org/namespaces/inkscape"
   width="210mm"
   height="297mm"
   viewBox="0 0 744.09448819 1052.3622047"
   id="svg2"
   version="1.1"
   inkscape:version="0.91 r13725"
   sodipodi:docname="entity-user.svg"
   inkscape:export-filename="C:\Users\johannes\Documents\Arbeit\RRZE\bi-con\bi-con\scalable\documents\document.png"
   inkscape:export-xdpi="4"
   inkscape:export-ydpi="4">
  <defs
     id="defs4">
    <linearGradient
       inkscape:collect="always"
       id="linearGradient4233">
      <stop
         style="stop-color:#5a6578;stop-opacity:1;"
         offset="0"
         id="stop4235" />
      <stop
         style="stop-color:#9397a2;stop-opacity:1"
         offset="1"
         id="stop4237" />
    </linearGradient>
    <linearGradient
       id="linearGradient2224">
      <stop
         id="stop2226"
         offset="0"
         style="stop-color:#7c7c7c;stop-opacity:1;" />
      <stop
         id="stop2228"
         offset="1"
         style="stop-color:#b8b8b8;stop-opacity:1;" />
    </linearGradient>
    <linearGradient
       id="linearGradient15218">
      <stop
         id="stop15220"
         offset="0"
         style="stop-color:#eeeeef;stop-opacity:1;" />
      <stop
         id="stop2736"
         offset="0.59928656"
         style="stop-color:#d3d7cf;stop-opacity:1;" />
      <stop
         id="stop2738"
         offset="0.82758623"
         style="stop-color:#ffffff;stop-opacity:1;" />
      <stop
         id="stop15222"
         offset="1"
         style="stop-color:#d3d7cf;stop-opacity:1;" />
    </linearGradient>
    <pattern
       y="0"
       x="0"
       height="6"
       width="6"
       patternUnits="userSpaceOnUse"
       id="EMFhbasepattern" />
    <pattern
       y="0"
       x="0"
       height="6"
       width="6"
       patternUnits="userSpaceOnUse"
       id="EMFhbasepattern-5" />
    <linearGradient
       inkscape:collect="always"
       xlink:href="#linearGradient4233"
       id="linearGradient4239"
       x1="220"
       y1="692.36218"
       x2="540"
       y2="372.36221"
       gradientUnits="userSpaceOnUse" />
  </defs>
  <sodipodi:namedview
     id="base"
     pagecolor="#ffffff"
     bordercolor="#666666"
     borderopacity="1.0"
     inkscape:pageopacity="0.0"
     inkscape:pageshadow="2"
     inkscape:zoom="0.25"
     inkscape:cx="-99.746988"
     inkscape:cy="490.83359"
     inkscape:document-units="px"
     inkscape:current-layer="layer1"
     showgrid="false"
     showguides="true"
     inkscape:guide-bbox="true"
     inkscape:window-width="1366"
     inkscape:window-height="721"
     inkscape:window-x="-4"
     inkscape:window-y="-4"
     inkscape:window-maximized="1">
    <sodipodi:guide
       position="560,730.00002"
       orientation="0,1"
       id="guide3338" />
    <sodipodi:guide
       position="560,330.00001"
       orientation="0,1"
       id="guide3340" />
    <sodipodi:guide
       position="190,475.00001"
       orientation="1,0"
       id="guide3344" />
    <sodipodi:guide
       position="590,451.00001"
       orientation="1,0"
       id="guide3346" />
    <inkscape:grid
       type="xygrid"
       id="grid3440" />
  </sodipodi:namedview>
  <metadata
     id="metadata7">
    <rdf:RDF>
      <cc:Work
         rdf:about="">
        <dc:format>image/svg+xml</dc:format>
        <dc:type
           rdf:resource="http://purl.org/dc/dcmitype/StillImage" />
        <dc:title></dc:title>
      </cc:Work>
    </rdf:RDF>
  </metadata>
  <g
     inkscape:label="Ebene 1"
     inkscape:groupmode="layer"
     id="layer1">
    <rect
       style="opacity:1;fill:none;fill-opacity:1;stroke:none;stroke-width:23;stroke-linecap:butt;stroke-linejoin:round;stroke-miterlimit:4;stroke-dasharray:none;stroke-opacity:1"
       id="rect4160"
       width="400"
       height="400"
       x="190"
       y="322.36221" />
    <path
       style="color:#000000;clip-rule:nonzero;display:inline;overflow:visible;visibility:visible;opacity:1;isolation:auto;mix-blend-mode:normal;color-interpolation:sRGB;color-interpolation-filters:linearRGB;solid-color:#000000;solid-opacity:1;fill:#5a6578;fill-opacity:1;fill-rule:nonzero;stroke:none;stroke-width:23;stroke-linecap:butt;stroke-linejoin:round;stroke-miterlimit:4;stroke-dasharray:none;stroke-dashoffset:0;stroke-opacity:1;color-rendering:auto;image-rendering:auto;shape-rendering:auto;text-rendering:auto;enable-background:accumulate"
       d="M 280 372.36133 C 274.46 372.36133 270 376.82133 270 382.36133 C 270 387.90133 274.46 392.36133 280 392.36133 L 301.54492 392.36133 C 302.1647 389.12429 302.5 385.78431 302.5 382.36133 C 302.5 378.93834 302.1647 375.59837 301.54492 372.36133 L 280 372.36133 z M 316.75391 372.36133 C 317.24183 375.62574 317.5 378.96424 317.5 382.36133 C 317.5 385.75842 317.24183 389.09691 316.75391 392.36133 L 463.36719 392.36133 C 462.80728 388.87158 462.50781 385.29624 462.50781 381.65234 C 462.50781 378.49952 462.74268 375.40098 463.16406 372.36133 L 316.75391 372.36133 z M 478.33789 372.36133 C 477.80311 375.37745 477.50781 378.47813 477.50781 381.65234 C 477.50781 385.32476 477.88278 388.90537 478.59375 392.36133 L 520 392.36133 C 525.54 392.36133 530 387.90133 530 382.36133 C 530 376.82133 525.54 372.36133 520 372.36133 L 478.33789 372.36133 z M 250 382.36133 C 244.46 382.36133 240 386.82133 240 392.36133 L 240 433.90625 C 243.23704 434.52603 246.57702 434.86133 250 434.86133 C 253.42298 434.86133 256.76296 434.52603 260 433.90625 L 260 392.36133 C 260 386.82133 255.54 382.36133 250 382.36133 z M 530 412.36133 C 524.46 412.36133 520 416.82133 520 422.36133 L 520 433.19531 C 523.23949 433.81608 526.58205 434.15234 530.00781 434.15234 C 533.42802 434.15234 536.76541 433.81802 540 433.19922 L 540 422.36133 C 540 416.82133 535.54 412.36133 530 412.36133 z M 520 448.4043 L 520 595.5957 C 523.23358 595.11721 526.53887 594.86133 529.90234 594.86133 C 533.33305 594.86133 536.70479 595.12169 540 595.61914 L 540 448.40625 C 536.73801 448.89343 533.40225 449.15234 530.00781 449.15234 C 526.60799 449.15234 523.26692 448.89299 520 448.4043 z M 240 449.11523 L 240 595.23828 C 243.35757 594.72124 246.79604 594.45312 250.29492 594.45312 C 253.59042 594.45313 256.82886 594.70243 260 595.16211 L 260 449.11523 C 256.73559 449.60316 253.39709 449.86133 250 449.86133 C 246.60291 449.86133 243.26441 449.60316 240 449.11523 z M 250.29492 609.45312 C 246.76841 609.45313 243.32822 609.80403 240 610.46094 L 240 622.36133 C 240 627.90133 244.46 632.36133 250 632.36133 C 255.54 632.36133 260 627.90133 260 622.36133 L 260 610.35547 C 256.85459 609.77179 253.61438 609.45312 250.29492 609.45312 z M 529.90234 609.86133 C 526.51365 609.86133 523.20674 610.19112 520 610.79883 L 520 622.36133 C 520 627.90133 524.46 632.36133 530 632.36133 C 535.54 632.36133 540 627.90133 540 622.36133 L 540 610.83398 C 536.73271 610.20202 533.35962 609.86133 529.90234 609.86133 z M 270 652.36133 C 264.46 652.36133 260 656.82133 260 662.36133 C 260 667.90133 264.46 672.36133 270 672.36133 L 301.76758 672.36133 C 302.439 668.99825 302.79492 665.51936 302.79492 661.95312 C 302.79492 658.67339 302.48221 655.47147 301.91211 652.36133 L 270 652.36133 z M 317.10156 652.36133 C 317.55059 655.4965 317.79492 658.69672 317.79492 661.95312 C 317.79492 665.49175 317.51691 668.96747 316.98828 672.36133 L 463.14844 672.36133 C 462.66051 669.09691 462.40234 665.75842 462.40234 662.36133 C 462.40234 658.96424 462.66051 655.62574 463.14844 652.36133 L 317.10156 652.36133 z M 478.35742 652.36133 C 477.73764 655.59837 477.40234 658.93834 477.40234 662.36133 C 477.40234 665.78431 477.73764 669.12429 478.35742 672.36133 L 510 672.36133 C 515.54 672.36133 520 667.90133 520 662.36133 C 520 656.82133 515.54 652.36133 510 652.36133 L 478.35742 652.36133 z "
       id="rect4203" />
    <path
       style="color:#000000;clip-rule:nonzero;display:inline;overflow:visible;visibility:visible;opacity:1;isolation:auto;mix-blend-mode:normal;color-interpolation:sRGB;color-interpolation-filters:linearRGB;solid-color:#000000;solid-opacity:1;fill:url(#linearGradient4239);fill-opacity:1;fill-rule:nonzero;stroke:none;stroke-width:23;stroke-linecap:butt;stroke-linejoin:round;stroke-miterlimit:4;stroke-dasharray:none;stroke-dashoffset:0;stroke-opacity:1;color-rendering:auto;image-rendering:auto;shape-rendering:auto;text-rendering:auto;enable-background:accumulate"
       d="M 530.00781 321.65234 A 60 60.000004 0 0 0 470.00781 381.65234 A 60 60.000004 0 0 0 530.00781 441.65234 A 60 60.000004 0 0 0 590.00781 381.65234 A 60 60.000004 0 0 0 530.00781 321.65234 z M 250 322.36133 A 60 60.000004 0 0 0 190 382.36133 A 60 60.000004 0 0 0 250 442.36133 A 60 60.000004 0 0 0 310 382.36133 A 60 60.000004 0 0 0 250 322.36133 z M 250.29492 601.95312 A 60 60.000004 0 0 0 190.29492 661.95312 A 60 60.000004 0 0 0 250.29492 721.95312 A 60 60.000004 0 0 0 310.29492 661.95312 A 60 60.000004 0 0 0 250.29492 601.95312 z M 529.90234 602.36133 A 60 60.000004 0 0 0 469.90234 662.36133 A 60 60.000004 0 0 0 529.90234 722.36133 A 60 60.000004 0 0 0 589.90234 662.36133 A 60 60.000004 0 0 0 529.90234 602.36133 z "
       id="path4165" />
    <g
       style="fill:#abbe24;stroke:#ffffff;stroke-width:30;stroke-miterlimit:4;stroke-dasharray:none;stroke-linejoin:round"
       id="g4178"
       transform="matrix(0.69739041,0,0,0.69739041,192.86053,209.4066)">
      <path
         style="fill:#abbe24;fill-opacity:1;stroke:#ffffff;stroke-width:30;stroke-linecap:round;stroke-linejoin:round;stroke-opacity:1;stroke-miterlimit:4;stroke-dasharray:none"
         d="m 354.64258,460.41602 c -0.11745,0.1039 -0.22449,0.21556 -0.3457,0.3164 l -6.54297,3.54492 c -42.67576,25.28071 -72.76172,86.25893 -72.76172,157.46875 0,15.29493 1.39507,30.1142 3.99804,44.21289 3.86098,8.63739 13.56182,14.96807 25.18555,15.79493 l 0,0.0957 172.76172,0 0,-0.008 c 13.04649,-0.18416 24.03463,-7.28341 27.72656,-17.01563 2.4704,-13.75919 3.79102,-28.19351 3.79102,-43.08008 0,-74.54936 -32.9771,-137.88441 -78.85156,-160.78515 -10.95259,6.14942 -23.5778,9.67773 -37.00391,9.67773 -13.81748,10e-6 -26.78697,-3.73654 -37.95703,-10.22265 z"
         id="path4180"
         inkscape:connector-curvature="0"
         sodipodi:nodetypes="cccsccccccscsc" />
      <ellipse
         style="fill:#abbe24;fill-opacity:1;stroke:#ffffff;stroke-width:30;stroke-miterlimit:4;stroke-dasharray:none;stroke-opacity:1;stroke-linejoin:round"
         id="ellipse4182"
         cy="395.83826"
         cx="392.98022"
         rx="65.647316"
         ry="65.293182" />
    </g>
    <g
       transform="matrix(0.69739041,0,0,0.69739041,192.86053,209.4066)"
       id="g4289"
       style="fill:#abbe24">
      <path
         sodipodi:nodetypes="cccsccccccscsc"
         inkscape:connector-curvature="0"
         id="path2176"
         d="m 354.64258,460.41602 c -0.11745,0.1039 -0.22449,0.21556 -0.3457,0.3164 l -6.54297,3.54492 c -42.67576,25.28071 -72.76172,86.25893 -72.76172,157.46875 0,15.29493 1.39507,30.1142 3.99804,44.21289 3.86098,8.63739 13.56182,14.96807 25.18555,15.79493 l 0,0.0957 172.76172,0 0,-0.008 c 13.04649,-0.18416 24.03463,-7.28341 27.72656,-17.01563 2.4704,-13.75919 3.79102,-28.19351 3.79102,-43.08008 0,-74.54936 -32.9771,-137.88441 -78.85156,-160.78515 -10.95259,6.14942 -23.5778,9.67773 -37.00391,9.67773 -13.81748,10e-6 -26.78697,-3.73654 -37.95703,-10.22265 z"
         style="fill:#abbe24;fill-opacity:1;stroke:none;stroke-width:41.15159225;stroke-linecap:round;stroke-linejoin:round;stroke-opacity:1" />
      <ellipse
         ry="65.293182"
         rx="65.647316"
         cx="392.98022"
         cy="395.83826"
         id="circle2187-6"
         style="fill:#abbe24;fill-opacity:1;stroke:none;stroke-width:14;stroke-miterlimit:4;stroke-dasharray:none;stroke-opacity:1" />
    </g>
  </g>
</svg>
